X:1
T:O Salutaris Hostia
T:Ignatio Donati
T:Source : Primo libro di Motetti a voce sola---Venetia---A.Vincenti---1634. Editor : André Vierendeels (10/12/16).
T:Notes : Original clefs : F4, F4 Editorial accidentals above the staff Original note values have been halved in 3-beat measures Figures in BC are notated in original print m 16 in B : "F" notated as "G" in original print m 22 in B : two quarters notated as eighth notes in original print Square bracket indicates ligature
T:#
T:#
T:O Salutaris Hostia
T:©
T:©
T:©
T:©
T:©
T:©
T:©
C:Ignatio Donati
Z:©
%%score 1 2
L:1/8
Q:1/4=121
M:4/4
K:F
V:1 bass nm="Bass" snm="B"
V:2 bass nm="BC"
V:1
 z4 G,4- | G,4 D,C, D,E, | F,4 G,4 | A,D,E,F, G,F,G,E, | ^F,2 G,4 F,2 | G,8 | z4 B,4- | %7
w: O|_ Sa- * lu- *|ta- ris|Ho- * * * * * * *|* * sti-|a,|O|
 B,4 F,E, F,G, | A,2 A,2 B,B,,D,E, | F,G,A,F, G,A,B,G, | A,2 B,4 A,2 | B,8 | z2 C,2 D,C, D,E, | %13
w: _ Sa- * lu- *|ta- ris Ho- * * *||* * sti-|a,|quae cae- * li _|
 F,3 E, D,2 A,,2 | B,,4 C,4 | F,,4 z2 F,2 | G,F, G,A, B,4- | B,2 G,2 A,3 A,, | D,8 | z2 G,4 G,2 | %20
w: pan- * * dis|o- sti-|um, quae|cae- * li _ pan-|* dis o- sti-|um,|bel- la|
 F,4 F,2 D,2 | _E,D,C,D, E,2 C,2 | D,8 | z2 C,4 C,2 | B,,4 B,,2 G,,2 | A,,6 A,,2 | G,,4 z4 | %27
w: pre- nunt ho-|sti- * * * * li-|a,|bel- la|pre- nunt ho-|sti- li-|a,|
 z2 D,2 D,2 E,2 | F,4 G,E,F,G, | A,6 A,,2 | D,8 | z2 B,2 B,2 A,2 | G,6 F,2 | _E,4 F,4 | B,,4 z4 | %35
w: da ro- bur,|fer au- * * *|xi- li-|um,|da ro- bur|fer au-|xi- li-|um,|
 z2 G,2 G,2 F,2 | _E,6 D,2 | C,4 _E,4 | D,8 | z2 G,,2 G,,2 A,,2 | B,,4 C,A,,B,,C, | D,6 D,2 | %42
w: da ro- bur|fer au-|xi- li-|um,|da ro- bur|fer au- * * *|xi- li-|
 G,,8 |[M:6/4] G,8 D,4 | F,2 E,2 F,2 G,2 A,4 | G,8 ^F,4 | G,8 z4 | F,4 G,2 F,2 G,2 A,2 | B,8 A,4 | %49
w: um.|U- ni|tri- * o- * que|Do- mi-|no|sit sem- * pi- *|ter- na|
 G,2 A,2 B,2 G,2 A,4 | D,8 z4 | G,4 G,4 G,4 | F,8 D,4 | _E,8 E,4 | D,8 z4 | C,4 C,4 C,4 | %56
w: glo- * * * ri-|a,|qui vi- tam|si- ne|ter- mi-|no,|qui vi- tam|
 B,,8 G,,4 | A,,8 A,,4 | G,,8 z4 | D,8 E,4 | F,2 E,2 F,2 G,2 A,4 | G,8 ^F,4 | G,4 G,,4 A,,4 | %63
w: si- ne|ter- mi-|no,|no- bis|do- * net _ in|Pa- tri-|a, no- bis|
 B,,2 A,,2 B,,2 C,2 D,4 | _E,4 C,4 D,4 |[M:4/4] G,,8 | z2 C,2- C,/=B,,/C,/D,/ _E,/B,,/C,/D,/ | %67
w: do- * net _ in|Pa- * tri|a.|A- * * * * * * * *|
 _E,/D,/E,/F,/ G,/D,/E,/F,/ G,/F,/E,/D,/ E,/B,,/C,/D,/ | %68
w: |
 _E,/D,/C,/B,,/ C,/G,,/A,,/B,,/ C,2 B,,A,, | G,,8 |] %70
w: |men.|
V:2
 G,,8 | G,,4 D,4 | F,4 _E,4 |"^#" D,4 C,4 |"^#" D,8 |"^-natural""^b" G,,4 G,,4 | B,,6 C,2 | %7
 D,4 F,4 | F,4 B,,4 | F,,4 G,,4 | F,,8 | B,,4 B,,4 | C,4 D,4 | F,3 E, D,2 A,,2 | B,,4 C,4 | %15
 F,,4 F,4 | G,4 B,4- |"^#""^#" B,2 G,2 A,2 A,,2 |"^#" D,8 |"^-natural""^b" G,,4 G,4 | F,4 F,2 D,2 | %21
"^b" C,8 | D,4 D,4 |"^b""^b" C,4 C,4 | B,,4 B,,2 G,,2 | A,,6 A,,2 | G,,4 B,,2 C,2 | D,6 E,2 | %28
 F,4 G,4 |"^#""^#" A,4 A,,4 | D,4 D,2 C,2 | B,,8 | G,,4 G,,4 | _E,4 F,4 | B,,4 B,,2 A,,2 | G,,8 | %36
 _E,4 E,2 D,2 | C,4 _E,4 | D,8 | G,,4 G,,2 A,,2 | B,,4 C,4 |"^#" D,8 |"^-natural" G,,8 | %43
[M:6/4] G,8 D,4 | F,6 G,2 A,4 |"^#" G,4 C,4 D,4 | G,,8 z4 | F,4 G,4 A,4 | B,8 A,4 |"^#" G,8 A,4 | %50
"^#""^#""^#" D,4 D,4 D,4 | G,,8 G,4 | F,8 D,4 | _E,8 E,4 | D,4 D,4 D,4 |"^b" C,8 C,4 | %56
 B,,6 A,,2 G,,4 | A,,8 A,,4 | G,,6 A,,2 B,,2 C,2 | D,8 E,4 | F,8 F,4 |"^#" G,4 C,4 D,4 | %62
 G,,8 A,,4 | B,,4 C,4 D,4 |"^#" _E,4 C,4 D,4 |[M:4/4]"^-natural" G,,8 |"^b" C,8- | C,8 |"^b" C,8 | %69
"^-natural" G,,8 |] %70

